X:183
T:Poaching song - Watts
%%VWML:SBG-1-2-216-0
F:http://www.vwml.org/record/SBG/1/2/216
Z:Original Sibelius transcriptions by M. & S. Graebe
M:6/8
I:linebreak $
K:C
V:1 treble nm="P1"
V:1
 G | FED CCE | DCD C2 C | CEG cAB | AGD G2 G |$ cBc GBd | cAG E2 c/B/ | AGA EDC | DED C3 | %9



